X:1051
T:Gråtaren
R:Vals
S:Efter Atle Lien Jensen
O:Finnskogen, Värmland (?)
Z:Jonas Brunskog
M:3/4
L:1/8
K:Dm
(A2|:f3) f f2|(f2 e2 f2)|d3 d d2|(A2 d2 f2)|
e3 e e2|(A2 ^c2 e2)|[1(f3 g fe|d4) (A2:|[2(d3 e d^c|d4) (A2|]
|:f3) f f2|(f2 e2 f2)|(a3 a b2| a2) (g2 a2|
f3) (f ag|e3) (e gf|d2) (A2 c2|[1d4) (A2:|[2 d4) z2|]
(:musicend:)

(:music:)
